brandFactory_export/2.Regular/Informacion_2Regular.svg

<?xml version="1.0" encoding="UTF-8"?>
<svg width="24px" height="24px" viewBox="0 0 24 24" version="1.1" xmlns="http://www.w3.org/2000/svg" xmlns:xlink="http://www.w3.org/1999/xlink">
    <title>2.Regular/Informacion_2Regular</title>
    <g id="Symbols" stroke="none" stroke-width="1" fill="none" fill-rule="evenodd">
        <g id="2.Regular/Informacion_2Regular" fill="#5CB615" fill-rule="nonzero">
            <path d="M12.4235294,22.1478992 C15.3478992,22.1210084 22.1478992,21.0655462 22.1478992,11.8487395 C22.1478992,2.61512605 15.2840336,1.51932773 12.3294118,1.4789916 C11.9865546,1.47563025 11.6403361,1.47563025 11.297479,1.48235294 C8.34285714,1.53613445 1.47563025,2.6487395 1.47563025,11.7781513 C1.47563025,20.9109244 8.38319328,22.0638655 11.3546218,22.1344538 C11.6168067,22.1411765 11.9193277,22.1445378 12.2117647,22.1445378 C12.2117647,22.1478992 12.4235294,22.1478992 12.4235294,22.1478992 Z M12.3529412,0 C14.7260504,0.0336134454 23.6235294,0.894117647 23.6235294,11.8487395 C23.6235294,22.789916 14.8067227,23.6033613 12.4369748,23.6235294 L12.2117647,23.6235294 C11.9092437,23.6235294 11.5932773,23.6201681 11.3210084,23.610084 C9.00504202,23.5563025 0,22.6420168 0,11.7781513 C0,0.894117647 9.01512605,0.0470588235 11.2705882,0.00672268908 C11.6302521,0 11.9932773,0 12.3529412,0 Z M11.8184874,8.87394958 C12.2252101,8.87394958 12.5579832,9.20336134 12.5579832,9.61344538 L12.5579832,17.2907563 C12.5579832,17.697479 12.2285714,18.0302521 11.8184874,18.0302521 C11.4117647,18.0302521 11.0789916,17.7008403 11.0789916,17.2907563 L11.0789916,9.61344538 C11.0789916,9.20672269 11.4117647,8.87394958 11.8184874,8.87394958 Z M11.8252101,6.32605042 C12.2588235,6.3092437 12.6252101,6.6487395 12.6386555,7.08571429 C12.6554622,7.51932773 12.3159664,7.88571429 11.8789916,7.89915966 L11.8218487,7.89915966 C11.3882353,7.88235294 11.0487395,7.51932773 11.0621849,7.08571429 C11.0823529,6.67226891 11.4117647,6.3394958 11.8252101,6.32605042 L11.8252101,6.32605042 Z" id="Informacion_2Regular"></path>
        </g>
    </g>
</svg>

<svg width="24" height="24" viewBox="0 0 24 24" xmlns="http://www.w3.org/2000/svg"><path d="M12.424 22.148c2.924-.027 9.724-1.082 9.724-10.3 0-9.233-6.864-10.329-9.819-10.369-.342-.003-.689-.003-1.032.003-2.954.054-9.821 1.167-9.821 10.296 0 9.133 6.907 10.286 9.879 10.356.262.007.564.01.857.01 0 .004.212.004.212.004zM12.353 0c2.373.034 11.27.894 11.27 11.849 0 10.94-8.816 11.754-11.186 11.775h-.225c-.303 0-.619-.004-.891-.014C9.005 23.556 0 22.642 0 11.778 0 .894 9.015.048 11.27.007 11.63 0 11.994 0 12.354 0zm-.535 8.874c.407 0 .74.33.74.74v7.677a.74.74 0 01-1.479 0V9.613c0-.406.333-.74.74-.74zm.007-2.548c.434-.017.8.323.814.76a.784.784 0 01-.76.813h-.057a.79.79 0 01-.76-.813.794.794 0 01.763-.76z" fill="#5CB615" fill-rule="nonzero"/></svg>
